libs/ui/packages/crypto-icons/src/svg/DASH.svg

<svg width="24" height="24" viewBox="0 0 24 24" fill="none">
<path d="M14.3228 5.9209H8.86583L8.41432 8.44615L13.3358 8.45365C15.7591 8.45365 16.4783 9.3334 16.4551 10.7936C16.4446 11.5422 16.1183 12.8082 15.9803 13.2162C15.6076 14.3112 14.8396 15.5576 11.9611 15.5539L7.17757 15.5509L6.72607 18.0792H12.1688C14.0881 18.0792 14.9056 17.8549 15.7688 17.4567C17.6843 16.5732 18.8251 14.6809 19.2833 12.2112C19.9628 8.53615 19.1153 5.9209 14.3221 5.9209H14.3228Z" fill="#008CE7"/>
<path d="M11.8635 11.7664C12.0413 11.0276 12.0975 10.7314 12.0975 10.7314H6.51304C5.08504 10.7314 4.88104 11.6614 4.74529 12.2239C4.56754 12.9596 4.51129 13.2596 4.51129 13.2596H10.0965C11.5238 13.2596 11.7278 12.3296 11.8635 11.7664Z" fill="#008CE7"/>
</svg>

<svg width="24" height="24" viewBox="0 0 24 24" fill="none"><path fill="#008ce7" d="M14.323 5.92H8.866l-.452 2.526 4.922.008c2.423 0 3.142.88 3.12 2.34-.011.748-.338 2.014-.476 2.422-.372 1.095-1.14 2.342-4.019 2.338l-4.783-.003-.452 2.528h5.443c1.92 0 2.737-.224 3.6-.622 1.915-.884 3.056-2.776 3.514-5.246.68-3.675-.168-6.29-4.96-6.29"/><path fill="#008ce7" d="M11.864 11.766c.177-.738.233-1.035.233-1.035H6.514c-1.428 0-1.632.93-1.768 1.493-.177.736-.234 1.036-.234 1.036h5.586c1.427 0 1.63-.93 1.767-1.494"/></svg>
